report_00007_2020-12-11T15:55:29.892Z/meta/score/comparison/sorted/1_vs_2.svg

<svg width="640" height="500" xmlns="http://www.w3.org/2000/svg" xmlns:xlink="http://www.w3.org/1999/xlink"><path fill="#fff" d="M0 0h640v500H0z"/><defs><path id="d" stroke-width=".222" stroke="currentColor" d="M-1-1h2v2h-2z"/><path id="b" stroke-width=".222" stroke="currentColor" d="M0-1.33l-1.33 2h2.66z"/><path id="f" stroke-width=".222" stroke="currentColor" d="M0 1.33L1.265.411.782-1.067l-1.564-.009-.483 1.487z"/><use xlink:href="#b" id="c" stroke="currentColor" transform="rotate(180)"/><use xlink:href="#d" id="e" stroke="currentColor" transform="rotate(45)"/><circle id="a" stroke-width=".222" stroke="currentColor" cx="0" cy="0" r="1"/></defs><g fill="none" color="#000" stroke="currentColor"><path stroke="#000" d="M62.2 430.1h9m543.8 0h-9"/><text transform="translate(53.9 434)" stroke="none" fill="#000" font-family="Arial" font-size="12" text-anchor="end"><tspan>0.42</tspan></text></g><g fill="none" color="#000" stroke="currentColor"><path stroke="#000" d="M62.2 374.6h9m543.8 0h-9"/><text transform="translate(53.9 378.5)" stroke="none" fill="#000" font-family="Arial" font-size="12" text-anchor="end"><tspan>0.44</tspan></text></g><g fill="none" color="#000" stroke="currentColor"><path stroke="#000" d="M62.2 319.2h9m543.8 0h-9"/><text transform="translate(53.9 323.1)" stroke="none" fill="#000" font-family="Arial" font-size="12" text-anchor="end"><tspan>0.46</tspan></text></g><g fill="none" color="#000" stroke="currentColor"><path stroke="#000" d="M62.2 263.8h9m543.8 0h-9"/><text transform="translate(53.9 267.7)" stroke="none" fill="#000" font-family="Arial" font-size="12" text-anchor="end"><tspan>0.48</tspan></text></g><g fill="none" color="#000" stroke="currentColor"><path stroke="#000" d="M62.2 208.4h9m543.8 0h-9"/><text transform="translate(53.9 212.3)" stroke="none" fill="#000" font-family="Arial" font-size="12" text-anchor="end"><tspan>0.5</tspan></text></g><g fill="none" color="#000" stroke="currentColor"><path stroke="#000" d="M62.2 153h9m543.8 0h-9"/><text transform="translate(53.9 156.9)" stroke="none" fill="#000" font-family="Arial" font-size="12" text-anchor="end"><tspan>0.52</tspan></text></g><g fill="none" color="#000" stroke="currentColor"><path stroke="#000" d="M62.2 97.6h9m543.8 0h-9"/><text transform="translate(53.9 101.5)" stroke="none" fill="#000" font-family="Arial" font-size="12" text-anchor="end"><tspan>0.54</tspan></text></g><g fill="none" color="#000" stroke="currentColor"><path stroke="#000" d="M62.2 42.2h9m543.8 0h-9"/><text transform="translate(53.9 46.1)" stroke="none" fill="#000" font-family="Arial" font-size="12" text-anchor="end"><tspan>0.56</tspan></text></g><g fill="none" color="#000" stroke="currentColor"><path stroke="#000" d="M62.2 446v-9m0-418.9v9"/><text transform="translate(62.2 467.9)" stroke="none" fill="#000" font-family="Arial" font-size="12" text-anchor="middle"><tspan>0</tspan></text></g><g fill="none" color="#000" stroke="currentColor"><path stroke="#000" d="M118 446v-9m0-418.9v9"/><text transform="translate(118 467.9)" stroke="none" fill="#000" font-family="Arial" font-size="12" text-anchor="middle"><tspan>10</tspan></text></g><g fill="none" color="#000" stroke="currentColor"><path stroke="#000" d="M173.9 446v-9m0-418.9v9"/><text transform="translate(173.9 467.9)" stroke="none" fill="#000" font-family="Arial" font-size="12" text-anchor="middle"><tspan>20</tspan></text></g><g fill="none" color="#000" stroke="currentColor"><path stroke="#000" d="M229.7 446v-9m0-418.9v9"/><text transform="translate(229.7 467.9)" stroke="none" fill="#000" font-family="Arial" font-size="12" text-anchor="middle"><tspan>30</tspan></text></g><g fill="none" color="#000" stroke="currentColor"><path stroke="#000" d="M285.6 446v-9m0-418.9v9"/><text transform="translate(285.6 467.9)" stroke="none" fill="#000" font-family="Arial" font-size="12" text-anchor="middle"><tspan>40</tspan></text></g><g fill="none" color="#000" stroke="currentColor"><path stroke="#000" d="M341.4 446v-9m0-418.9v9"/><text transform="translate(341.4 467.9)" stroke="none" fill="#000" font-family="Arial" font-size="12" text-anchor="middle"><tspan>50</tspan></text></g><g fill="none" color="#000" stroke="currentColor"><path stroke="#000" d="M397.2 446v-9m0-418.9v9"/><text transform="translate(397.2 467.9)" stroke="none" fill="#000" font-family="Arial" font-size="12" text-anchor="middle"><tspan>60</tspan></text></g><g fill="none" color="#000" stroke="currentColor"><path stroke="#000" d="M453.1 446v-9m0-418.9v9"/><text transform="translate(453.1 467.9)" stroke="none" fill="#000" font-family="Arial" font-size="12" text-anchor="middle"><tspan>70</tspan></text></g><g fill="none" color="#000" stroke="currentColor"><path stroke="#000" d="M508.9 446v-9m0-418.9v9"/><text transform="translate(508.9 467.9)" stroke="none" fill="#000" font-family="Arial" font-size="12" text-anchor="middle"><tspan>80</tspan></text></g><g fill="none" color="#000" stroke="currentColor"><path stroke="#000" d="M564.7 446v-9m0-418.9v9"/><text transform="translate(564.7 467.9)" stroke="none" fill="#000" font-family="Arial" font-size="12" text-anchor="middle"><tspan>90</tspan></text></g><path stroke="#000" d="M62.2 18.1V446H615V18.1H62.2z" fill="none" color="#000"/><text transform="translate(279.8 485.9)" stroke="none" fill="#000" font-family="Arial" font-size="12" text-anchor="end" color="#000"><tspan>pages</tspan></text><path stroke="#9400D3" d="M288.1 482h42.2M62.2 437.8l5.6-34.8 5.6-78 5.6-5.2 5.5-.4 5.6-11.2h5.6l5.6-.8 5.6-2.7 5.6-3.5 5.5-2.5 5.6-1.2 5.6-1.6 5.6-.4 5.6-1.7 5.6-.3 5.5-.5 5.6-1.5 5.6-.7 5.6-.4 5.6-.4 5.6-.5 5.5-.1 5.6-.4 5.6-.7 5.6-.4 5.6-.2 5.6-.4 5.5-.1 5.6-1 5.6-.2 5.6-.1 5.6-.3 5.6-.7 5.6-1 5.5-.2h5.6l5.6-.4 5.6-.1 5.6-.3 5.6-.5 5.5-.2 5.6-.4 5.6-.2 5.6-.1 5.6-.2h5.6l5.5-.6 5.6-.1 5.6-.4 5.6-1.4 5.6-.3 5.6-.2 5.5-.5 5.6-.6 5.6-.7 5.6-.5 5.6-.4 5.6-.5 5.5-1.3 5.6-.3 5.6-5.7 5.6-3.4 5.6-3.4 5.6-1.2 5.5-16.3 5.6-2.7 5.6-.5 5.6-.2 5.6-3.7 5.6-1.3 5.6-2.4 5.5-1.9 5.6-2.5 5.6-5.8 5.6-2.1 5.6-.1 5.6-5.8 5.5-3.2 5.6-.9 5.6-10.9 5.6-8.5 5.6-.7 5.6-7.8 5.5-1.2 5.6-1.3 5.6-.5 5.6-1.6 5.6-1.3 5.6-2.1 5.5-.3 5.6-.1 5.6-3.1 5.6-1.2 5.6-.6 5.6-.5h5.5l5.6-.3 5.6-2.5 5.6-.1" fill="none" color="#000"/><text transform="translate(438.2 485.9)" stroke="none" fill="#000" font-family="Arial" font-size="12" text-anchor="end" color="#000"><tspan>pages+cached</tspan></text><path stroke="#009E73" d="M446.5 482h42.2M62.2 232.4l5.6-13.5 5.6-8.2 5.6-7 5.5-1.8 5.6-2.7 5.6-6.3 5.6-6.3 5.6-1.5 5.6-1.5 5.5-1.2 5.6-.4 5.6-.9 5.6-.4 5.6-5.5 5.6-11.1 5.5-2.4 5.6-.3 5.6-.5 5.6-.1 5.6-3.2 5.6-.2 5.5-.6 5.6-.6 5.6-6.9 5.6-7.1 5.6-1.7 5.6-.7 5.5-2.3 5.6-1 5.6-.4 5.6-.1 5.6-.7 5.6-.7 5.6-.2 5.5-.3 5.6-1.8 5.6-1.2 5.6-1.9 5.6-.2 5.6-.4h5.5l5.6-1.1 5.6-1.1 5.6-2.4 5.6-1.1 5.6-2.6 5.5-2.5 5.6-1.7 5.6-.1 5.6-2.1 5.6-.1 5.6-2.8 5.5-.4 5.6-1 5.6-2.3h5.6l5.6-.6 5.6-1.4 5.5-1.7 5.6-1.3 5.6-1.2 5.6-2.8 5.6-.7 5.6-.4h16.7l5.6-2.5 5.6-.5 5.6-1.8 5.6-.3 5.5-2.4 5.6-4 5.6-.5 5.6-1.1 5.6-1.6 5.6-1 5.5-.4 5.6-.5 5.6-.6 5.6-.8 5.6-.1 5.6-3.1 5.5-.9h5.6l5.6-2.9 5.6-.4 5.6-.7 5.6-.2 5.5-6.2 5.6-1.5 5.6-.2 5.6-.1 5.6-1.8h5.6l5.5-1.1 5.6-1.7 5.6-.9 5.6-31.1" fill="none" color="#000"/><g fill="none" color="#000" stroke="currentColor"><path stroke="#000" d="M62.2 18.1V446H615V18.1H62.2z"/></g></svg>

<?xml version="1.0" encoding="utf-8"  standalone="no"?>
<svg 
 width="640" height="500"
 viewBox="0 0 640 500"
 xmlns="http://www.w3.org/2000/svg"
 xmlns:xlink="http://www.w3.org/1999/xlink"
>

<title>Gnuplot</title>
<desc>Produced by GNUPLOT 5.4 patchlevel 0 </desc>

<g id="gnuplot_canvas">

<rect x="0" y="0" width="640" height="500" fill="#ffffff"/>
<defs>

	<circle id='gpDot' r='0.5' stroke-width='0.5' stroke='currentColor'/>
	<path id='gpPt0' stroke-width='0.222' stroke='currentColor' d='M-1,0 h2 M0,-1 v2'/>
	<path id='gpPt1' stroke-width='0.222' stroke='currentColor' d='M-1,-1 L1,1 M1,-1 L-1,1'/>
	<path id='gpPt2' stroke-width='0.222' stroke='currentColor' d='M-1,0 L1,0 M0,-1 L0,1 M-1,-1 L1,1 M-1,1 L1,-1'/>
	<rect id='gpPt3' stroke-width='0.222' stroke='currentColor' x='-1' y='-1' width='2' height='2'/>
	<rect id='gpPt4' stroke-width='0.222' stroke='currentColor' fill='currentColor' x='-1' y='-1' width='2' height='2'/>
	<circle id='gpPt5' stroke-width='0.222' stroke='currentColor' cx='0' cy='0' r='1'/>
	<use xlink:href='#gpPt5' id='gpPt6' fill='currentColor' stroke='none'/>
	<path id='gpPt7' stroke-width='0.222' stroke='currentColor' d='M0,-1.33 L-1.33,0.67 L1.33,0.67 z'/>
	<use xlink:href='#gpPt7' id='gpPt8' fill='currentColor' stroke='none'/>
	<use xlink:href='#gpPt7' id='gpPt9' stroke='currentColor' transform='rotate(180)'/>
	<use xlink:href='#gpPt9' id='gpPt10' fill='currentColor' stroke='none'/>
	<use xlink:href='#gpPt3' id='gpPt11' stroke='currentColor' transform='rotate(45)'/>
	<use xlink:href='#gpPt11' id='gpPt12' fill='currentColor' stroke='none'/>
	<path id='gpPt13' stroke-width='0.222' stroke='currentColor' d='M0,1.330 L1.265,0.411 L0.782,-1.067 L-0.782,-1.076 L-1.265,0.411 z'/>
	<use xlink:href='#gpPt13' id='gpPt14' fill='currentColor' stroke='none'/>
	<filter id='textbox' filterUnits='objectBoundingBox' x='0' y='0' height='1' width='1'>
	  <feFlood flood-color='#FFFFFF' flood-opacity='1' result='bgnd'/>
	  <feComposite in='SourceGraphic' in2='bgnd' operator='atop'/>
	</filter>
	<filter id='greybox' filterUnits='objectBoundingBox' x='0' y='0' height='1' width='1'>
	  <feFlood flood-color='lightgrey' flood-opacity='1' result='grey'/>
	  <feComposite in='SourceGraphic' in2='grey' operator='atop'/>
	</filter>
</defs>
<g fill="none" color="#FFFFFF" stroke="black" stroke-width="1.00" stroke-linecap="butt" stroke-linejoin="miter">
</g>
<g fill="none" color="black" stroke="currentColor" stroke-width="1.00" stroke-linecap="butt" stroke-linejoin="miter">
	<path stroke='black'  d='M62.2,430.1 L71.2,430.1 M615.0,430.1 L606.0,430.1  '/>	<g transform="translate(53.9,434.0)" stroke="none" fill="black" font-family="Arial" font-size="12.00"  text-anchor="end">
		<text><tspan font-family="Arial" > 0.42</tspan></text>
	</g>
</g>
<g fill="none" color="black" stroke="currentColor" stroke-width="1.00" stroke-linecap="butt" stroke-linejoin="miter">
	<path stroke='black'  d='M62.2,374.6 L71.2,374.6 M615.0,374.6 L606.0,374.6  '/>	<g transform="translate(53.9,378.5)" stroke="none" fill="black" font-family="Arial" font-size="12.00"  text-anchor="end">
		<text><tspan font-family="Arial" > 0.44</tspan></text>
	</g>
</g>
<g fill="none" color="black" stroke="currentColor" stroke-width="1.00" stroke-linecap="butt" stroke-linejoin="miter">
	<path stroke='black'  d='M62.2,319.2 L71.2,319.2 M615.0,319.2 L606.0,319.2  '/>	<g transform="translate(53.9,323.1)" stroke="none" fill="black" font-family="Arial" font-size="12.00"  text-anchor="end">
		<text><tspan font-family="Arial" > 0.46</tspan></text>
	</g>
</g>
<g fill="none" color="black" stroke="currentColor" stroke-width="1.00" stroke-linecap="butt" stroke-linejoin="miter">
	<path stroke='black'  d='M62.2,263.8 L71.2,263.8 M615.0,263.8 L606.0,263.8  '/>	<g transform="translate(53.9,267.7)" stroke="none" fill="black" font-family="Arial" font-size="12.00"  text-anchor="end">
		<text><tspan font-family="Arial" > 0.48</tspan></text>
	</g>
</g>
<g fill="none" color="black" stroke="currentColor" stroke-width="1.00" stroke-linecap="butt" stroke-linejoin="miter">
	<path stroke='black'  d='M62.2,208.4 L71.2,208.4 M615.0,208.4 L606.0,208.4  '/>	<g transform="translate(53.9,212.3)" stroke="none" fill="black" font-family="Arial" font-size="12.00"  text-anchor="end">
		<text><tspan font-family="Arial" > 0.5</tspan></text>
	</g>
</g>
<g fill="none" color="black" stroke="currentColor" stroke-width="1.00" stroke-linecap="butt" stroke-linejoin="miter">
	<path stroke='black'  d='M62.2,153.0 L71.2,153.0 M615.0,153.0 L606.0,153.0  '/>	<g transform="translate(53.9,156.9)" stroke="none" fill="black" font-family="Arial" font-size="12.00"  text-anchor="end">
		<text><tspan font-family="Arial" > 0.52</tspan></text>
	</g>
</g>
<g fill="none" color="black" stroke="currentColor" stroke-width="1.00" stroke-linecap="butt" stroke-linejoin="miter">
	<path stroke='black'  d='M62.2,97.6 L71.2,97.6 M615.0,97.6 L606.0,97.6  '/>	<g transform="translate(53.9,101.5)" stroke="none" fill="black" font-family="Arial" font-size="12.00"  text-anchor="end">
		<text><tspan font-family="Arial" > 0.54</tspan></text>
	</g>
</g>
<g fill="none" color="black" stroke="currentColor" stroke-width="1.00" stroke-linecap="butt" stroke-linejoin="miter">
	<path stroke='black'  d='M62.2,42.2 L71.2,42.2 M615.0,42.2 L606.0,42.2  '/>	<g transform="translate(53.9,46.1)" stroke="none" fill="black" font-family="Arial" font-size="12.00"  text-anchor="end">
		<text><tspan font-family="Arial" > 0.56</tspan></text>
	</g>
</g>
<g fill="none" color="black" stroke="currentColor" stroke-width="1.00" stroke-linecap="butt" stroke-linejoin="miter">
	<path stroke='black'  d='M62.2,446.0 L62.2,437.0 M62.2,18.1 L62.2,27.1  '/>	<g transform="translate(62.2,467.9)" stroke="none" fill="black" font-family="Arial" font-size="12.00"  text-anchor="middle">
		<text><tspan font-family="Arial" > 0</tspan></text>
	</g>
</g>
<g fill="none" color="black" stroke="currentColor" stroke-width="1.00" stroke-linecap="butt" stroke-linejoin="miter">
	<path stroke='black'  d='M118.0,446.0 L118.0,437.0 M118.0,18.1 L118.0,27.1  '/>	<g transform="translate(118.0,467.9)" stroke="none" fill="black" font-family="Arial" font-size="12.00"  text-anchor="middle">
		<text><tspan font-family="Arial" > 10</tspan></text>
	</g>
</g>
<g fill="none" color="black" stroke="currentColor" stroke-width="1.00" stroke-linecap="butt" stroke-linejoin="miter">
	<path stroke='black'  d='M173.9,446.0 L173.9,437.0 M173.9,18.1 L173.9,27.1  '/>	<g transform="translate(173.9,467.9)" stroke="none" fill="black" font-family="Arial" font-size="12.00"  text-anchor="middle">
		<text><tspan font-family="Arial" > 20</tspan></text>
	</g>
</g>
<g fill="none" color="black" stroke="currentColor" stroke-width="1.00" stroke-linecap="butt" stroke-linejoin="miter">
	<path stroke='black'  d='M229.7,446.0 L229.7,437.0 M229.7,18.1 L229.7,27.1  '/>	<g transform="translate(229.7,467.9)" stroke="none" fill="black" font-family="Arial" font-size="12.00"  text-anchor="middle">
		<text><tspan font-family="Arial" > 30</tspan></text>
	</g>
</g>
<g fill="none" color="black" stroke="currentColor" stroke-width="1.00" stroke-linecap="butt" stroke-linejoin="miter">
	<path stroke='black'  d='M285.6,446.0 L285.6,437.0 M285.6,18.1 L285.6,27.1  '/>	<g transform="translate(285.6,467.9)" stroke="none" fill="black" font-family="Arial" font-size="12.00"  text-anchor="middle">
		<text><tspan font-family="Arial" > 40</tspan></text>
	</g>
</g>
<g fill="none" color="black" stroke="currentColor" stroke-width="1.00" stroke-linecap="butt" stroke-linejoin="miter">
	<path stroke='black'  d='M341.4,446.0 L341.4,437.0 M341.4,18.1 L341.4,27.1  '/>	<g transform="translate(341.4,467.9)" stroke="none" fill="black" font-family="Arial" font-size="12.00"  text-anchor="middle">
		<text><tspan font-family="Arial" > 50</tspan></text>
	</g>
</g>
<g fill="none" color="black" stroke="currentColor" stroke-width="1.00" stroke-linecap="butt" stroke-linejoin="miter">
	<path stroke='black'  d='M397.2,446.0 L397.2,437.0 M397.2,18.1 L397.2,27.1  '/>	<g transform="translate(397.2,467.9)" stroke="none" fill="black" font-family="Arial" font-size="12.00"  text-anchor="middle">
		<text><tspan font-family="Arial" > 60</tspan></text>
	</g>
</g>
<g fill="none" color="black" stroke="currentColor" stroke-width="1.00" stroke-linecap="butt" stroke-linejoin="miter">
	<path stroke='black'  d='M453.1,446.0 L453.1,437.0 M453.1,18.1 L453.1,27.1  '/>	<g transform="translate(453.1,467.9)" stroke="none" fill="black" font-family="Arial" font-size="12.00"  text-anchor="middle">
		<text><tspan font-family="Arial" > 70</tspan></text>
	</g>
</g>
<g fill="none" color="black" stroke="currentColor" stroke-width="1.00" stroke-linecap="butt" stroke-linejoin="miter">
	<path stroke='black'  d='M508.9,446.0 L508.9,437.0 M508.9,18.1 L508.9,27.1  '/>	<g transform="translate(508.9,467.9)" stroke="none" fill="black" font-family="Arial" font-size="12.00"  text-anchor="middle">
		<text><tspan font-family="Arial" > 80</tspan></text>
	</g>
</g>
<g fill="none" color="black" stroke="currentColor" stroke-width="1.00" stroke-linecap="butt" stroke-linejoin="miter">
	<path stroke='black'  d='M564.7,446.0 L564.7,437.0 M564.7,18.1 L564.7,27.1  '/>	<g transform="translate(564.7,467.9)" stroke="none" fill="black" font-family="Arial" font-size="12.00"  text-anchor="middle">
		<text><tspan font-family="Arial" > 90</tspan></text>
	</g>
</g>
<g fill="none" color="black" stroke="currentColor" stroke-width="1.00" stroke-linecap="butt" stroke-linejoin="miter">
</g>
<g fill="none" color="black" stroke="currentColor" stroke-width="1.00" stroke-linecap="butt" stroke-linejoin="miter">
	<path stroke='black'  d='M62.2,18.1 L62.2,446.0 L615.0,446.0 L615.0,18.1 L62.2,18.1 Z  '/></g>
<g fill="none" color="black" stroke="currentColor" stroke-width="1.00" stroke-linecap="butt" stroke-linejoin="miter">
</g>
	<g id="gnuplot_plot_1" ><title>pages</title>
<g fill="none" color="black" stroke="currentColor" stroke-width="1.00" stroke-linecap="butt" stroke-linejoin="miter">
	<g transform="translate(279.8,485.9)" stroke="none" fill="black" font-family="Arial" font-size="12.00"  text-anchor="end">
		<text><tspan font-family="Arial" >pages</tspan></text>
	</g>
</g>
<g fill="none" color="black" stroke="currentColor" stroke-width="1.00" stroke-linecap="butt" stroke-linejoin="miter">
	<path stroke='rgb(148,   0, 211)'  d='M288.1,482.0 L330.3,482.0 M62.2,437.8 L67.8,403.0 L73.4,325.0 L79.0,319.8 L84.5,319.4 L90.1,308.2
		L95.7,308.2 L101.3,307.4 L106.9,304.7 L112.5,301.2 L118.0,298.7 L123.6,297.5 L129.2,295.9 L134.8,295.5
		L140.4,293.8 L146.0,293.5 L151.5,293.0 L157.1,291.5 L162.7,290.8 L168.3,290.4 L173.9,290.0 L179.5,289.5
		L185.0,289.4 L190.6,289.0 L196.2,288.3 L201.8,287.9 L207.4,287.7 L213.0,287.3 L218.5,287.2 L224.1,286.2
		L229.7,286.0 L235.3,285.9 L240.9,285.6 L246.5,284.9 L252.1,283.9 L257.6,283.7 L263.2,283.7 L268.8,283.3
		L274.4,283.2 L280.0,282.9 L285.6,282.4 L291.1,282.2 L296.7,281.8 L302.3,281.6 L307.9,281.5 L313.5,281.3
		L319.1,281.3 L324.6,280.7 L330.2,280.6 L335.8,280.2 L341.4,278.8 L347.0,278.5 L352.6,278.3 L358.1,277.8
		L363.7,277.2 L369.3,276.5 L374.9,276.0 L380.5,275.6 L386.1,275.1 L391.6,273.8 L397.2,273.5 L402.8,267.8
		L408.4,264.4 L414.0,261.0 L419.6,259.8 L425.1,243.5 L430.7,240.8 L436.3,240.3 L441.9,240.1 L447.5,236.4
		L453.1,235.1 L458.7,232.7 L464.2,230.8 L469.8,228.3 L475.4,222.5 L481.0,220.4 L486.6,220.3 L492.2,214.5
		L497.7,211.3 L503.3,210.4 L508.9,199.5 L514.5,191.0 L520.1,190.3 L525.7,182.5 L531.2,181.3 L536.8,180.0
		L542.4,179.5 L548.0,177.9 L553.6,176.6 L559.2,174.5 L564.7,174.2 L570.3,174.1 L575.9,171.0 L581.5,169.8
		L587.1,169.2 L592.7,168.7 L598.2,168.7 L603.8,168.4 L609.4,165.9 L615.0,165.8  '/></g>
	</g>
	<g id="gnuplot_plot_2" ><title>pages+cached</title>
<g fill="none" color="black" stroke="currentColor" stroke-width="1.00" stroke-linecap="butt" stroke-linejoin="miter">
	<g transform="translate(438.2,485.9)" stroke="none" fill="black" font-family="Arial" font-size="12.00"  text-anchor="end">
		<text><tspan font-family="Arial" >pages+cached</tspan></text>
	</g>
</g>
<g fill="none" color="black" stroke="currentColor" stroke-width="1.00" stroke-linecap="butt" stroke-linejoin="miter">
	<path stroke='rgb(  0, 158, 115)'  d='M446.5,482.0 L488.7,482.0 M62.2,232.4 L67.8,218.9 L73.4,210.7 L79.0,203.7 L84.5,201.9 L90.1,199.2
		L95.7,192.9 L101.3,186.6 L106.9,185.1 L112.5,183.6 L118.0,182.4 L123.6,182.0 L129.2,181.1 L134.8,180.7
		L140.4,175.2 L146.0,164.1 L151.5,161.7 L157.1,161.4 L162.7,160.9 L168.3,160.8 L173.9,157.6 L179.5,157.4
		L185.0,156.8 L190.6,156.2 L196.2,149.3 L201.8,142.2 L207.4,140.5 L213.0,139.8 L218.5,137.5 L224.1,136.5
		L229.7,136.1 L235.3,136.0 L240.9,135.3 L246.5,134.6 L252.1,134.4 L257.6,134.1 L263.2,132.3 L268.8,131.1
		L274.4,129.2 L280.0,129.0 L285.6,128.6 L291.1,128.6 L296.7,127.5 L302.3,126.4 L307.9,124.0 L313.5,122.9
		L319.1,120.3 L324.6,117.8 L330.2,116.1 L335.8,116.0 L341.4,113.9 L347.0,113.8 L352.6,111.0 L358.1,110.6
		L363.7,109.6 L369.3,107.3 L374.9,107.3 L380.5,106.7 L386.1,105.3 L391.6,103.6 L397.2,102.3 L402.8,101.1
		L408.4,98.3 L414.0,97.6 L419.6,97.2 L425.1,97.2 L430.7,97.2 L436.3,97.2 L441.9,94.7 L447.5,94.2
		L453.1,92.4 L458.7,92.1 L464.2,89.7 L469.8,85.7 L475.4,85.2 L481.0,84.1 L486.6,82.5 L492.2,81.5
		L497.7,81.1 L503.3,80.6 L508.9,80.0 L514.5,79.2 L520.1,79.1 L525.7,76.0 L531.2,75.1 L536.8,75.1
		L542.4,72.2 L548.0,71.8 L553.6,71.1 L559.2,70.9 L564.7,64.7 L570.3,63.2 L575.9,63.0 L581.5,62.9
		L587.1,61.1 L592.7,61.1 L598.2,60.0 L603.8,58.3 L609.4,57.4 L615.0,26.3  '/></g>
	</g>
<g fill="none" color="#FFFFFF" stroke="rgb(  0, 158, 115)" stroke-width="2.00" stroke-linecap="butt" stroke-linejoin="miter">
</g>
<g fill="none" color="black" stroke="currentColor" stroke-width="2.00" stroke-linecap="butt" stroke-linejoin="miter">
</g>
<g fill="none" color="black" stroke="black" stroke-width="1.00" stroke-linecap="butt" stroke-linejoin="miter">
</g>
<g fill="none" color="black" stroke="currentColor" stroke-width="1.00" stroke-linecap="butt" stroke-linejoin="miter">
	<path stroke='black'  d='M62.2,18.1 L62.2,446.0 L615.0,446.0 L615.0,18.1 L62.2,18.1 Z  '/></g>
<g fill="none" color="black" stroke="currentColor" stroke-width="1.00" stroke-linecap="butt" stroke-linejoin="miter">
</g>
</g>
</svg>
